X: 1
T: O'Donnell's Hornpipe
R: hornpipe
S: Seamus McGuire & John Lee, "The Missing Reel"
Z: Jeff Myers
M: C|
L: 1/8
Q: 90
K: G
Bc | dg (3gfe Bded | BGdB A2AG | FGAB cdef | (3gba (3gfe d2Bc | dg (3gfe Bded |
| BGdB A2AG | FGAB cdef |  gbaf g2 :: ef | gbag fagf | egfe fdB2 |
| gbag fagf | egfe fdBd | c2Ac B2GB | A2FA GFED | DEFG ABcA | (3GBd (3gdB G2 :|
